X:1
T:Captain's Hornpipe, The
C:Trad, Northumbrian
L:1/8
M:4/4
I:linebreak $
K:G
V:1 treble 
V:1
 d2 c2 |: (3BBB DG BB dB | (3ccc EA cc ed | (3BBB DG BB dB | AG FE D2 dc | (3BBB DG BB dB |$ %6
 (3ccc EA cc ed | de fe dc BA | (3GBd (3gdB G2 dc :: Bg DG B2 dc | Bg DG B2 dd |$ ca Ac a2 dd | %12
 ca Ac a2 dc | Bg DG B2 dc | Bg DG B2 fe | de fe dc BA | (3GBd (3gdB G2 dc :| %17
